X:261
T:Grand March by Rodger Dublin
O:No 261 William Clarke of Feltwell
M:4/4
L:1/8
K:G
g4d4|B3G AGAB|cBcd edef|g2G>GG2z2|B4c3A|(G4F2)z2|d4dedc|B4Adef|/
g2g>gg2b2|a3g fedc|B>Bd>d gggg|f2d>dd2ef|g2d2B2G2|d2d>dd2z2:||:/
A3d f>df>d|B3d g>dg>d|a2a2g2g2|f2d>dd2z2|A3d fdfd|B3d g>dg>d|a2za2gz g|f2d>dd2z2|/
d3d fedc|B3BdcBA|G2G>GA2AB|G2G>GG2zB|c2c>cc2dc|B2zBc2e2|d2zBc2e2|d2zBc2e2|dgeag2f2|/
g2zBc2e2|d2zBc2e2|d2zBc2e2|dgeag2f2|g2zb agfe|d2g2a2f2|g2zb agfe|d2g2a2f2|g2G>G B>B d>d|g2g>gg2z2:|

